X: 1121
T: Will You Come Down to Limerick? - 1st Setting   #2
R: slip jig
%S: s:3 b:17(5+6+6)
B: O'Neill's 1850 #1121
O: Ennis
Z: Michael D. Long, 1/9/99
Z: Michael Hogan
M: 9/8
L: 1/8
K: G
d !segno!|: cAG GDG G2d | cAG GFG Add | cAG GDG G2A |[1 FGA =fed cAd :|[2 FGA =fed cAG ||
|: def gaf g2f | def gbg afd |[1 cde =fge f2d | cde =fed cA^F :|[2 bag agf g2d | cde =fed cAG |]
|: BGB AFA G2A | BAB GBd cBA |[1 BGB AFA  G2A | FGA =fed cA^F :|[2 fdf ece d2A | FGA =fed cA!segno!G |]
